X:219 
T:Union Reel 
B:CRE3.197	(Ril na hAontachta)
F:file ID: cre.3/219union
N:1:Source shows this as an AABB tune but I'm not sure B part repeats.
N:2:Joe Derrane's expanded version of this tune is in the mvbt folder,
file ID mvbt/201union. ThatÃÂÃÂ¢ÃÂ¢ÃÂÃÂ¬ÃÂ¢ÃÂÃÂ¢s also De DanannÃÂÃÂ¢ÃÂ¢ÃÂÃÂ¬ÃÂ¢ÃÂÃÂ¢s version.
R:reel
L:1/8
Q:180
M:C
K:A
e2 (3cBA e2 (3cBA|eAcA Bcdf|e2 (3cBA eAcA|Bcdc BAFA|
e2 (3cBA e2 (3cBA|eAcA Bcdf|e3c dcBA|FABc d3z:|
dff2 d2eA|dff2 afeA|dff2 dfec|dcBA FABc|
dff2 d2ef|dff2 afef|dff2 dfec|dcBA FAdF|e8||

%%%

